icon/lg/sass-doc.svg

<?xml version="1.0" encoding="UTF-8" standalone="no"?>
<svg viewBox="0 0 256 216" version="1.1" xmlns="http://www.w3.org/2000/svg" xmlns:xlink="http://www.w3.org/1999/xlink" preserveAspectRatio="xMidYMid" height="1em" width="1em">
  <g>
    <path d="M51.437037,123.553185 C66.3514074,123.553185 73.746963,115.665383 73.746963,106.05037 C73.746963,83.1241481 36.2761481,92.2453333 36.2761481,77.330963 C36.2761481,71.168 41.8228148,66.4841481 51.0672593,66.4841481 C58.9558519,66.4841481 65.3653333,69.6888889 68.8165926,74.3727407 L72.3911111,69.8121481 C68.077037,65.005037 61.2977778,61.0607407 51.0672593,61.0607407 C37.632,61.0607407 29.8666667,68.4562963 29.8666667,77.5774815 C29.8666667,99.0245926 67.4607407,89.7801481 67.4607407,106.05037 C67.4607407,112.952889 61.5442963,118.129778 51.5602963,118.129778 C43.1786667,118.129778 36.1528889,114.185481 32.3318519,109.37837 L28.5108148,114.062222 C34.4272593,120.718222 41.8228148,123.553185 51.437037,123.553185 L51.437037,123.553185 Z M134.513778,122.074074 L134.513778,80.1659259 C134.513778,66.8539259 124.899556,61.0607407 112.820148,61.0607407 C102.959407,61.0607407 96.0568889,64.3887407 89.8939259,71.0447407 L93.4684444,75.4820741 C98.8918519,69.3191111 104.685037,66.7306667 112.203852,66.7306667 C120.955259,66.7306667 128.104296,71.5377778 128.104296,80.4124444 L128.104296,92.4918519 C122.927407,86.6986667 116.148148,83.986963 107.889778,83.986963 C97.536,83.986963 87.058963,90.7662222 87.058963,103.708444 C87.058963,116.528198 97.6592593,123.553185 107.889778,123.553185 C116.148148,123.553185 122.804148,120.840691 128.104296,115.047506 L128.104296,122.074074 L134.513778,122.074074 L134.513778,122.074074 Z M110.108444,118.500346 C100.370963,118.500346 93.8382222,112.213333 93.8382222,103.832494 C93.8382222,95.3276049 100.370963,89.0413827 110.108444,89.0413827 C117.257481,89.0413827 123.913481,91.7530864 128.104296,97.2997531 L128.104296,110.365235 C123.913481,115.787852 117.257481,118.500346 110.108444,118.500346 L110.108444,118.500346 Z M172.231111,123.553185 C187.145481,123.553185 194.540247,115.665383 194.540247,106.05037 C194.540247,83.1241481 157.069432,92.2453333 157.069432,77.330963 C157.069432,71.168 162.616099,66.4841481 171.860543,66.4841481 C179.749136,66.4841481 186.159407,69.6888889 189.609877,74.3727407 L193.184395,69.8121481 C188.870321,65.005037 182.091062,61.0607407 171.860543,61.0607407 C158.425284,61.0607407 150.659951,68.4562963 150.659951,77.5774815 C150.659951,99.0245926 188.254025,89.7801481 188.254025,106.05037 C188.254025,112.952889 182.33758,118.129778 172.35358,118.129778 C163.972741,118.129778 156.946173,114.185481 153.125136,109.37837 L149.304099,114.062222 C155.221333,120.718222 162.616889,123.553185 172.231111,123.553185 L172.231111,123.553185 Z M228.807111,123.553185 C243.721481,123.553185 251.117037,115.665383 251.117037,106.05037 C251.117037,83.1241481 213.646222,92.2453333 213.646222,77.330963 C213.646222,71.168 219.192889,66.4841481 228.437333,66.4841481 C236.325136,66.4841481 242.735407,69.6888889 246.186667,74.3727407 L249.760395,69.8121481 C245.446321,65.005037 238.667852,61.0607407 228.437333,61.0607407 C215.002074,61.0607407 207.236741,68.4562963 207.236741,77.5774815 C207.236741,99.0245926 244.830815,89.7801481 244.830815,106.05037 C244.830815,112.952889 238.91437,118.129778 228.93037,118.129778 C220.548741,118.129778 213.522963,114.185481 209.701926,109.37837 L205.880889,114.062222 C211.797333,120.718222 219.192889,123.553185 228.807111,123.553185 L228.807111,123.553185 Z M59.9545679,214.518519 C82.3055802,214.518519 97.8868148,200.334222 97.8868148,178.627951 C97.8868148,157.136593 82.3055802,142.84484 59.8471111,142.84484 L31.5859753,142.84484 L31.5859753,214.518519 L59.9545679,214.518519 L59.9545679,214.518519 Z M59.8471111,201.08642 L46.8448395,201.08642 L46.8448395,156.276938 L59.9545679,156.276938 C74.5686914,156.276938 82.3055802,166.055506 82.3055802,178.627951 C82.3055802,190.878025 74.0314074,201.08642 59.8471111,201.08642 L59.8471111,201.08642 Z M142.803753,215.808 C164.402568,215.808 180.198716,200.334222 180.198716,178.735407 C180.198716,157.136593 164.402568,141.662815 142.803753,141.662815 C121.097481,141.662815 105.301333,157.136593 105.301333,178.735407 C105.301333,200.334222 121.097481,215.808 142.803753,215.808 L142.803753,215.808 Z M142.803753,202.268444 C129.479111,202.268444 120.990025,192.060049 120.990025,178.735407 C120.990025,165.303309 129.479111,155.20237 142.803753,155.20237 C156.020938,155.20237 164.510025,165.303309 164.510025,178.735407 C164.510025,192.060049 156.020938,202.268444 142.803753,202.268444 L142.803753,202.268444 Z M225.761185,215.808 C241.449086,215.808 250.583704,207.104 255.634173,198.185086 L242.524444,191.845136 C239.514864,197.648593 233.067457,202.268444 225.761185,202.268444 C212.650667,202.268444 203.194469,192.274963 203.194469,178.735407 C203.194469,165.195852 212.650667,155.20237 225.761185,155.20237 C233.067457,155.20237 239.514864,159.823012 242.524444,165.625679 L255.634173,159.178272 C250.582914,150.151901 241.449877,141.662815 225.761185,141.662815 C204.16158,141.662815 187.506568,156.598519 187.506568,178.735407 C187.505778,200.764049 204.16158,215.808 225.761185,215.808 L225.761185,215.808 Z" fill="#5C4863"/>
    <path d="M8.30814815,61.0804938 C8.00237037,61.997037 7.65866667,62.9135802 7.27703704,63.8301235 C6.89540741,64.7466667 6.45530864,65.548642 5.95911111,66.2360494 C5.46291358,66.9234568 4.90824691,67.4386173 4.2982716,67.782321 C3.68750617,68.1268148 3.03802469,68.1837037 2.35061728,67.9545679 C1.43407407,67.8020741 0.91891358,67.1328395 0.803555556,65.9492346 C0.688987654,64.7656296 0.823308642,63.6009877 1.20493827,62.4553086 C1.73985185,60.6222222 2.52207407,58.1965432 3.55318519,55.1798519 C4.58508642,52.1631605 5.76869136,48.8588642 7.10479012,45.2701235 C8.44167901,41.6805926 9.85441975,37.9567407 11.3438025,34.099358 C12.8339753,30.2435556 14.265679,26.5576296 15.6404938,23.0439506 C17.0153086,19.5302716 18.2755556,16.3421235 19.4212346,13.4771358 C20.5669136,10.6129383 21.4455309,8.37925926 22.0562963,6.77530864 C22.2854321,6.31703704 22.6291358,5.93540741 23.0874074,5.62962963 C23.545679,5.32385185 24.0229136,5.17135802 24.5199012,5.17135802 C25.0160988,5.17135802 25.5122963,5.32385185 26.009284,5.62962963 C26.5054815,5.93540741 26.9060741,6.43160494 27.2118519,7.11901235 C27.8226173,8.72296296 27.8613333,10.2889877 27.3264198,11.8162963 C26.7915062,13.0386173 26.0282469,14.9293827 25.0350617,17.4870123 C24.0418765,20.0470123 22.9159506,22.9293827 21.6557037,26.137284 C20.3946667,29.3451852 19.0775309,32.7442963 17.702716,36.3338272 C16.3279012,39.923358 15.0297284,43.3422222 13.8074074,46.5872593 C12.5850864,49.8346667 11.4781235,52.754963 10.4849383,55.3520988 C9.49175309,57.9492346 8.76641975,59.8581728 8.30814815,61.0804938 L8.30814815,61.0804938 Z M69.3728395,32.3239506 C67.8455309,31.1782716 66.1839012,29.9559506 64.3887407,28.6577778 C62.5951605,27.3596049 60.7036049,26.022716 58.7180247,24.6479012 C60.0161975,29.3072593 61.3910123,33.7366914 62.8424691,37.9377778 C63.0716049,38.854321 62.9767901,39.6562963 62.5556543,40.3437037 C62.1368889,41.0311111 61.6201481,41.3748148 61.0093827,41.3748148 C60.0161975,41.222321 59.0048395,40.7640494 57.9729383,40 C56.9418272,39.2359506 56.2346667,38.3194074 55.8538272,37.2503704 C55.5480494,36.562963 55.1664198,35.4552099 54.7081481,33.9279012 C54.2498765,32.4005926 53.714963,30.6054321 53.1041975,28.5432099 C51.8060247,30.4529383 50.6026667,32.3239506 49.4949136,34.157037 C48.3887407,35.9901235 47.3378765,37.7465679 46.3446914,39.4271605 C45.7339259,40.2670617 45.0465185,40.7442963 44.2824691,40.8588642 C43.5184198,40.9742222 42.9455802,40.8019753 42.5639506,40.3437037 C42.029037,39.5038025 41.7050864,38.4158025 41.5897284,37.0781235 C41.4751605,35.7428148 41.6845432,34.6153086 42.2202469,33.6987654 C42.6018765,33.088 43.289284,31.9802469 44.2824691,30.3762963 C45.2756543,28.7723457 46.4971852,26.9013333 47.948642,24.7624691 C46.3446914,25.1440988 44.7786667,25.5446914 43.251358,25.965037 C41.7240494,26.3853827 40.1959506,26.7867654 38.668642,27.1683951 C37.7520988,27.3208889 36.9501235,27.1683951 36.262716,26.7101235 C35.5753086,26.2518519 35.2695309,25.7169383 35.3461728,25.1061728 C35.5753086,24.1129877 36.0904691,23.2161975 36.8924444,22.4142222 C37.6952099,21.6114568 38.630716,21.0583704 39.6997531,20.7525926 C40.4638025,20.5234568 41.7042963,20.1995062 43.4228148,19.7791605 C45.1421235,19.3588148 47.1087407,18.8815802 49.3234568,18.3466667 C47.7961481,17.4301235 46.2878025,16.4946173 44.7976296,15.5401481 C43.3082469,14.5840988 41.7999012,13.6873086 40.2725926,12.8474074 C39.4326914,12.3124938 38.9554568,11.6250864 38.8400988,10.7851852 C38.7255309,9.94528395 38.8977778,9.3337284 39.3560494,8.95209877 C40.1959506,8.41718519 41.2080988,8.16987654 42.3917037,8.20780247 C43.5768889,8.2457284 44.6261728,8.57125926 45.542716,9.18123457 C46.3067654,9.5628642 47.3758025,10.2123457 48.7506173,11.1288889 C48.5214815,9.83071605 48.3302716,8.5894321 48.1777778,7.40582716 C48.025284,6.22064198 47.910716,5.09471605 47.8340741,4.02567901 C47.7574321,3.18577778 47.948642,2.45965432 48.4069136,1.84888889 C48.8651852,1.23812346 49.4000988,0.894419753 50.0108642,0.817777778 C50.5457778,0.665283951 51.1944691,0.836740741 51.9585185,1.3337284 C52.7225679,1.82992593 53.2954074,2.7654321 53.677037,4.14024691 C53.9828148,5.5917037 54.3265185,7.08108642 54.7081481,8.60839506 C55.0897778,10.1357037 55.4721975,11.7783704 55.8538272,13.5348148 C57.3811358,11.4725926 58.8705185,9.52493827 60.3219753,7.69185185 C61.7734321,5.85876543 63.1482469,4.29274074 64.4464198,2.9945679 C65.0571852,2.38380247 65.7445926,2.04009877 66.508642,1.96345679 C67.2726914,1.88681481 67.8834568,2.07802469 68.3417284,2.5362963 C68.723358,2.84207407 69.0101728,3.45283951 69.2005926,4.36938272 C69.3918025,5.28592593 69.0662716,6.31703704 68.2271605,7.46271605 C67.3872593,8.60839506 66.432,9.88839506 65.362963,11.3011358 C64.2939259,12.7138765 63.1861728,14.2222222 62.0404938,15.8261728 C64.0260741,15.4445432 65.9737284,15.1577284 67.8834568,14.9673086 C69.7931852,14.7760988 71.5875556,14.643358 73.2681481,14.5659259 C74.1080494,14.5659259 74.8341728,14.7184198 75.4449383,15.0241975 C76.0557037,15.3299753 76.3994074,15.7882469 76.4760494,16.3990123 C76.5526914,16.9339259 76.3235556,17.5826173 75.788642,18.3466667 C75.2537284,19.110716 74.2992593,19.6069136 72.9244444,19.8360494 C71.6262716,20.0651852 70.2324938,20.294321 68.742321,20.5234568 C67.2529383,20.7525926 65.7445926,21.0196543 64.217284,21.3254321 C65.9737284,22.6236049 67.6163951,23.9028148 69.1437037,25.1638519 C70.6710123,26.4240988 72.0845432,27.6266667 73.382716,28.7723457 C73.9934815,29.3831111 74.3940741,30.0128395 74.585284,30.6631111 C74.7764938,31.3110123 74.6800988,31.9036049 74.2992593,32.4385185 C73.9176296,32.8201481 73.2681481,33.088 72.3516049,33.2404938 C71.4350617,33.3929877 70.4418765,33.088 69.3728395,32.3239506 L69.3728395,32.3239506 Z M115.887407,32.3239506 C114.360099,31.1782716 112.698469,29.9559506 110.903309,28.6577778 C109.109728,27.3596049 107.218173,26.022716 105.232593,24.6479012 C106.530765,29.3072593 107.90558,33.7366914 109.357037,37.9377778 C109.586173,38.854321 109.491358,39.6562963 109.070222,40.3437037 C108.651457,41.0311111 108.134716,41.3748148 107.523951,41.3748148 C106.530765,41.222321 105.519407,40.7640494 104.487506,40 C103.456395,39.2359506 102.749235,38.3194074 102.368395,37.2503704 C102.062617,36.562963 101.680988,35.4552099 101.222716,33.9279012 C100.764444,32.4005926 100.229531,30.6054321 99.6187654,28.5432099 C98.3205926,30.4529383 97.1172346,32.3239506 96.0094815,34.157037 C94.9033086,35.9901235 93.8524444,37.7465679 92.8592593,39.4271605 C92.2484938,40.2670617 91.5610864,40.7442963 90.797037,40.8588642 C90.0329877,40.9742222 89.4601481,40.8019753 89.0785185,40.3437037 C88.5436049,39.5038025 88.2196543,38.4158025 88.1042963,37.0781235 C87.9897284,35.7428148 88.1991111,34.6153086 88.7348148,33.6987654 C89.1164444,33.088 89.8038519,31.9802469 90.797037,30.3762963 C91.7902222,28.7723457 93.0117531,26.9013333 94.4632099,24.7624691 C92.8592593,25.1440988 91.2932346,25.5446914 89.7659259,25.965037 C88.2386173,26.3853827 86.7105185,26.7867654 85.1832099,27.1683951 C84.2666667,27.3208889 83.4646914,27.1683951 82.777284,26.7101235 C82.0898765,26.2518519 81.7840988,25.7169383 81.8607407,25.1061728 C82.0898765,24.1129877 82.605037,23.2161975 83.4070123,22.4142222 C84.2097778,21.6114568 85.145284,21.0583704 86.214321,20.7525926 C86.9783704,20.5234568 88.2188642,20.1995062 89.9373827,19.7791605 C91.6566914,19.3588148 93.6233086,18.8815802 95.8380247,18.3466667 C94.310716,17.4301235 92.8023704,16.4946173 91.3121975,15.5401481 C89.8228148,14.5840988 88.3144691,13.6873086 86.7871605,12.8474074 C85.9472593,12.3124938 85.4700247,11.6250864 85.3546667,10.7851852 C85.2400988,9.94528395 85.4123457,9.3337284 85.8706173,8.95209877 C86.7105185,8.41718519 87.7226667,8.16987654 88.9062716,8.20780247 C90.0914568,8.2457284 91.1407407,8.57125926 92.057284,9.18123457 C92.8213333,9.5628642 93.8903704,10.2123457 95.2651852,11.1288889 C95.0360494,9.83071605 94.8448395,8.5894321 94.6923457,7.40582716 C94.5398519,6.22064198 94.425284,5.09471605 94.348642,4.02567901 C94.272,3.18577778 94.4632099,2.45965432 94.9214815,1.84888889 C95.3797531,1.23812346 95.9146667,0.894419753 96.5254321,0.817777778 C97.0603457,0.665283951 97.709037,0.836740741 98.4730864,1.3337284 C99.2371358,1.82992593 99.8099753,2.7654321 100.191605,4.14024691 C100.497383,5.5917037 100.841086,7.08108642 101.222716,8.60839506 C101.604346,10.1357037 101.986765,11.7783704 102.368395,13.5348148 C103.895704,11.4725926 105.385086,9.52493827 106.836543,7.69185185 C108.288,5.85876543 109.662815,4.29274074 110.960988,2.9945679 C111.571753,2.38380247 112.25916,2.04009877 113.02321,1.96345679 C113.787259,1.88681481 114.398025,2.07802469 114.856296,2.5362963 C115.237926,2.84207407 115.524741,3.45283951 115.71516,4.36938272 C115.90637,5.28592593 115.58084,6.31703704 114.741728,7.46271605 C113.901827,8.60839506 112.946568,9.88839506 111.877531,11.3011358 C110.808494,12.7138765 109.700741,14.2222222 108.555062,15.8261728 C110.540642,15.4445432 112.488296,15.1577284 114.398025,14.9673086 C116.307753,14.7760988 118.102123,14.643358 119.782716,14.5659259 C120.622617,14.5659259 121.348741,14.7184198 121.959506,15.0241975 C122.570272,15.3299753 122.913975,15.7882469 122.990617,16.3990123 C123.067259,16.9339259 122.838123,17.5826173 122.30321,18.3466667 C121.768296,19.110716 120.813827,19.6069136 119.439012,19.8360494 C118.14084,20.0651852 116.747062,20.294321 115.256889,20.5234568 C113.767506,20.7525926 112.25916,21.0196543 110.731852,21.3254321 C112.488296,22.6236049 114.130963,23.9028148 115.658272,25.1638519 C117.18558,26.4240988 118.599111,27.6266667 119.897284,28.7723457 C120.508049,29.3831111 120.908642,30.0128395 121.099852,30.6631111 C121.291062,31.3110123 121.194667,31.9036049 120.813827,32.4385185 C120.432198,32.8201481 119.782716,33.088 118.866173,33.2404938 C117.94963,33.3929877 116.956444,33.088 115.887407,32.3239506 L115.887407,32.3239506 Z" fill="#DD5A6F"/>
  </g>
</svg>

<svg width="256" height="216" xmlns="http://www.w3.org/2000/svg" preserveAspectRatio="xMidYMid"><path d="M51.437 123.553c14.914 0 22.31-7.888 22.31-17.503 0-22.926-37.47-13.805-37.47-28.719 0-6.163 5.546-10.847 14.79-10.847 7.889 0 14.298 3.205 17.75 7.889l3.574-4.56c-4.314-4.808-11.093-8.752-21.324-8.752-13.435 0-21.2 7.395-21.2 16.516 0 21.448 37.594 12.203 37.594 28.473 0 6.903-5.917 12.08-15.9 12.08-8.382 0-15.408-3.945-19.23-8.752l-3.82 4.684c5.916 6.656 13.312 9.491 22.926 9.491Zm83.077-1.479V80.166c0-13.312-9.614-19.105-21.694-19.105-9.86 0-16.763 3.328-22.926 9.984l3.574 4.437c5.424-6.163 11.217-8.751 18.736-8.751 8.751 0 15.9 4.807 15.9 13.681v12.08c-5.177-5.793-11.956-8.505-20.214-8.505-10.354 0-20.831 6.78-20.831 19.721 0 12.82 10.6 19.845 20.83 19.845 8.26 0 14.915-2.712 20.215-8.505v7.026h6.41Zm-24.406-3.574c-9.737 0-16.27-6.287-16.27-14.668 0-8.504 6.533-14.79 16.27-14.79 7.15 0 13.805 2.711 17.996 8.258v13.065c-4.19 5.423-10.847 8.135-17.996 8.135Zm62.123 5.053c14.914 0 22.31-7.888 22.31-17.503 0-22.926-37.472-13.805-37.472-28.719 0-6.163 5.547-10.847 14.792-10.847 7.888 0 14.298 3.205 17.749 7.889l3.574-4.56c-4.314-4.808-11.093-8.752-21.323-8.752-13.436 0-21.201 7.395-21.201 16.516 0 21.448 37.594 12.203 37.594 28.473 0 6.903-5.916 12.08-15.9 12.08-8.381 0-15.408-3.945-19.229-8.752l-3.82 4.684c5.916 6.656 13.312 9.491 22.926 9.491Zm56.576 0c14.914 0 22.31-7.888 22.31-17.503 0-22.926-37.47-13.805-37.47-28.719 0-6.163 5.546-10.847 14.79-10.847 7.888 0 14.298 3.205 17.75 7.889l3.573-4.56c-4.314-4.808-11.092-8.752-21.323-8.752-13.435 0-21.2 7.395-21.2 16.516 0 21.448 37.594 12.203 37.594 28.473 0 6.903-5.917 12.08-15.9 12.08-8.382 0-15.408-3.945-19.23-8.752l-3.82 4.684c5.916 6.656 13.312 9.491 22.926 9.491ZM59.955 214.52c22.35 0 37.932-14.185 37.932-35.891 0-21.491-15.581-35.783-38.04-35.783H31.586v71.674h28.369Zm-.108-13.433H46.845v-44.81h13.11c14.614 0 22.35 9.78 22.35 22.352 0 12.25-8.274 22.458-22.458 22.458Zm82.957 14.722c21.599 0 37.395-15.474 37.395-37.073 0-21.598-15.796-37.072-37.395-37.072-21.707 0-37.503 15.474-37.503 37.072 0 21.6 15.796 37.073 37.503 37.073Zm0-13.54c-13.325 0-21.814-10.208-21.814-23.533 0-13.432 8.49-23.533 21.814-23.533 13.217 0 21.706 10.101 21.706 23.533 0 13.325-8.49 23.533-21.706 23.533Zm82.957 13.54c15.688 0 24.823-8.704 29.873-17.623l-13.11-6.34c-3.01 5.804-9.457 10.423-16.763 10.423-13.11 0-22.567-9.993-22.567-23.533 0-13.54 9.457-23.533 22.567-23.533 7.306 0 13.754 4.621 16.763 10.424l13.11-6.448c-5.051-9.026-14.184-17.515-29.873-17.515-21.6 0-38.254 14.936-38.254 37.072-.001 22.029 16.655 37.073 38.254 37.073Z" fill="#5C4863"/><path d="M8.308 61.08c-.306.917-.65 1.834-1.031 2.75a11.934 11.934 0 0 1-1.318 2.406c-.496.687-1.05 1.203-1.66 1.546-.611.345-1.261.402-1.948.173-.917-.153-1.432-.822-1.547-2.006a8.384 8.384 0 0 1 .4-3.494c.536-1.833 1.318-4.258 2.35-7.275a394.842 394.842 0 0 1 3.55-9.91c1.338-3.59 2.75-7.313 4.24-11.17a2855.76 2855.76 0 0 1 4.296-11.056c1.375-3.514 2.636-6.702 3.781-9.567a461.824 461.824 0 0 0 2.635-6.702c.23-.458.573-.84 1.031-1.145.459-.306.936-.459 1.433-.459.496 0 .992.153 1.49.459.495.305.896.802 1.202 1.489.61 1.604.65 3.17.114 4.697-.534 1.223-1.298 3.113-2.29 5.671-.994 2.56-2.12 5.442-3.38 8.65a1250.283 1250.283 0 0 0-3.953 10.197c-1.375 3.59-2.673 7.008-3.896 10.253-1.222 3.248-2.329 6.168-3.322 8.765a1037.69 1037.69 0 0 0-2.177 5.728Zm61.065-28.756a355.248 355.248 0 0 0-10.655-7.676 228.646 228.646 0 0 0 4.124 13.29c.23.916.135 1.718-.286 2.406-.42.687-.936 1.03-1.547 1.03-.993-.152-2.004-.61-3.036-1.374-1.031-.764-1.738-1.68-2.12-2.75-.305-.687-.687-1.795-1.145-3.322a1595.85 1595.85 0 0 1-1.604-5.385 125.036 125.036 0 0 0-3.61 5.614 670.142 670.142 0 0 0-3.15 5.27c-.61.84-1.297 1.317-2.062 1.432-.764.115-1.336-.057-1.718-.515-.535-.84-.859-1.928-.974-3.266-.115-1.335.095-2.463.63-3.38.382-.61 1.07-1.718 2.062-3.322a163.304 163.304 0 0 1 3.667-5.614c-1.604.382-3.17.783-4.698 1.203-1.527.42-3.055.822-4.582 1.203-.917.153-1.719 0-2.406-.458-.688-.458-.993-.993-.917-1.604.23-.993.744-1.89 1.546-2.692a6.403 6.403 0 0 1 2.808-1.661c.764-.23 2.004-.553 3.723-.974 1.72-.42 3.686-.897 5.9-1.432a182.494 182.494 0 0 1-4.525-2.807 77.553 77.553 0 0 0-4.525-2.693c-.84-.535-1.318-1.222-1.433-2.062-.114-.84.058-1.451.516-1.833.84-.535 1.852-.782 3.036-.744 1.185.038 2.234.363 3.15.973.765.382 1.834 1.031 3.209 1.948a81.05 81.05 0 0 1-.573-3.723 60.36 60.36 0 0 1-.344-3.38c-.077-.84.115-1.566.573-2.177.458-.61.993-.955 1.604-1.031.535-.153 1.183.019 1.948.516.764.496 1.336 1.431 1.718 2.806.306 1.452.65 2.941 1.031 4.468.382 1.528.764 3.17 1.146 4.927a228.368 228.368 0 0 1 4.468-5.843c1.451-1.833 2.826-3.4 4.124-4.697.611-.611 1.299-.955 2.063-1.032.764-.076 1.374.115 1.833.573.381.306.668.917.859 1.833.19.917-.135 1.948-.974 3.094a318.556 318.556 0 0 1-2.864 3.838 204.288 204.288 0 0 0-3.323 4.525 65.283 65.283 0 0 1 5.843-.859c1.91-.19 3.705-.324 5.385-.401.84 0 1.566.152 2.177.458.61.306.954.764 1.031 1.375.077.535-.152 1.184-.687 1.948s-1.49 1.26-2.865 1.489c-1.298.23-2.692.458-4.182.687-1.49.23-2.997.497-4.525.802 1.757 1.299 3.4 2.578 4.927 3.839 1.527 1.26 2.94 2.463 4.239 3.608.61.611 1.011 1.24 1.202 1.891.191.648.095 1.24-.286 1.776-.381.381-1.03.649-1.947.801-.917.153-1.91-.152-2.98-.916Zm46.514 0a355.247 355.247 0 0 0-10.654-7.676 228.645 228.645 0 0 0 4.124 13.29c.23.916.134 1.718-.287 2.406-.419.687-.935 1.03-1.546 1.03-.993-.152-2.005-.61-3.036-1.374-1.032-.764-1.739-1.68-2.12-2.75-.305-.687-.687-1.795-1.145-3.322a1595.78 1595.78 0 0 1-1.604-5.385 125.036 125.036 0 0 0-3.61 5.614 670.142 670.142 0 0 0-3.15 5.27c-.61.84-1.298 1.317-2.062 1.432-.764.115-1.337-.057-1.718-.515-.535-.84-.86-1.928-.975-3.266-.114-1.335.095-2.463.63-3.38.382-.61 1.07-1.718 2.063-3.322a163.304 163.304 0 0 1 3.666-5.614c-1.604.382-3.17.783-4.697 1.203-1.527.42-3.055.822-4.583 1.203-.916.153-1.718 0-2.406-.458-.687-.458-.993-.993-.916-1.604.229-.993.744-1.89 1.546-2.692a6.403 6.403 0 0 1 2.807-1.661c.764-.23 2.005-.553 3.723-.974 1.72-.42 3.686-.897 5.901-1.432a182.494 182.494 0 0 1-4.526-2.807 77.553 77.553 0 0 0-4.525-2.693c-.84-.535-1.317-1.222-1.432-2.062-.115-.84.057-1.451.516-1.833.84-.535 1.852-.782 3.035-.744 1.185.038 2.235.363 3.151.973.764.382 1.833 1.031 3.208 1.948a81.05 81.05 0 0 1-.573-3.723 60.36 60.36 0 0 1-.343-3.38c-.077-.84.114-1.566.572-2.177.459-.61.994-.955 1.604-1.031.535-.153 1.184.019 1.948.516.764.496 1.337 1.431 1.719 2.806.305 1.452.65 2.941 1.03 4.468.382 1.528.765 3.17 1.146 4.927a228.369 228.369 0 0 1 4.469-5.843c1.451-1.833 2.826-3.4 4.124-4.697.61-.611 1.298-.955 2.062-1.032.764-.076 1.375.115 1.833.573.382.306.669.917.86 1.833.19.917-.135 1.948-.974 3.094a318.554 318.554 0 0 1-2.864 3.838 204.289 204.289 0 0 0-3.323 4.525 65.283 65.283 0 0 1 5.843-.859c1.91-.19 3.704-.324 5.385-.401.84 0 1.566.152 2.177.458.61.306.954.764 1.03 1.375.077.535-.152 1.184-.687 1.948s-1.49 1.26-2.864 1.489c-1.298.23-2.692.458-4.182.687-1.49.23-2.998.497-4.525.802 1.756 1.299 3.399 2.578 4.926 3.839 1.528 1.26 2.941 2.463 4.24 3.608.61.611 1.01 1.24 1.202 1.891.191.648.095 1.24-.286 1.776-.382.381-1.031.649-1.948.801-.916.153-1.91-.152-2.979-.916Z" fill="#DD5A6F"/></svg>
